src/lib/packages/icons/src/assets/filled/arrow-up-right-square.svg

<svg width="24" height="24" viewBox="0 0 24 24" fill="none" xmlns="http://www.w3.org/2000/svg">
<path d="M17.625 3H6.375C4.125 3 3 4.125 3 6.375V17.625C3 19.875 4.125 21 6.375 21H17.625C19.875 21 21 19.875 21 17.625V6.375C21 4.125 19.875 3 17.625 3ZM15.75 13C15.75 13.414 15.414 13.75 15 13.75C14.586 13.75 14.25 13.414 14.25 13V10.811L9.53003 15.531C9.38403 15.677 9.192 15.751 9 15.751C8.808 15.751 8.61597 15.678 8.46997 15.531C8.17697 15.238 8.17697 14.763 8.46997 14.47L13.1899 9.75H11C10.586 9.75 10.25 9.414 10.25 9C10.25 8.586 10.586 8.25 11 8.25H15C15.098 8.25 15.1951 8.27011 15.2871 8.30811C15.4701 8.38411 15.6161 8.53011 15.6931 8.71411C15.7311 8.80611 15.751 8.90298 15.751 9.00098V13H15.75Z" fill="currentColor"/>
</svg>

<svg xmlns="http://www.w3.org/2000/svg" width="24" height="24" fill="none"><path fill="currentColor" d="M17.625 3H6.375C4.125 3 3 4.125 3 6.375v11.25C3 19.875 4.125 21 6.375 21h11.25C19.875 21 21 19.875 21 17.625V6.375C21 4.125 19.875 3 17.625 3ZM15.75 13a.75.75 0 0 1-1.5 0v-2.189l-4.72 4.72a.748.748 0 0 1-1.06 0 .75.75 0 0 1 0-1.061l4.72-4.72H11a.75.75 0 0 1 0-1.5h4a.751.751 0 0 1 .751.751V13h-.001Z"/></svg>
